icons/codefund.svg

<?xml version="1.0" encoding="UTF-8"?>
<svg width="512px" height="84px" viewBox="0 0 512 84" version="1.1" xmlns="http://www.w3.org/2000/svg" xmlns:xlink="http://www.w3.org/1999/xlink" preserveAspectRatio="xMidYMid">
		<g>
				<g>
						<path d="M74.5654367,42.0374733 C72.5644701,40.8420502 70.9855698,39.0602638 70.0458976,36.9371804 C69.1532884,34.8723753 68.7088673,32.094988 68.7126334,28.6050184 L68.7126334,16.1320245 C68.7465414,14.8235406 68.5866494,13.5172103 68.2380819,12.254904 C67.9727824,11.316589 67.4506275,10.4697488 66.7296857,9.80855885 C65.9324602,9.16038814 64.9813971,8.72576775 63.9671173,8.54611005 C63.7524392,8.4956121 63.5321118,8.45072505 63.3004853,8.41144886 C61.7145448,8.12336492 60.1050524,7.98248546 58.4928257,7.99009813 L51.6005284,7.99009813 C53.2148178,7.98398781 54.8262192,8.12674726 56.4138376,8.41705975 C56.645464,8.45633591 56.8657915,8.50122299 57.0804695,8.55172094 C58.0934468,8.73011787 59.0429903,9.16493289 59.8373885,9.81416974 C60.5617932,10.4735174 61.0862058,11.3208465 61.3514341,12.2605149 C61.6972267,13.5233621 61.8570689,14.8292866 61.8259856,16.1376354 L61.8259856,28.7509014 C61.8259856,32.1847621 61.8881292,35.2483045 62.7807384,37.3411639 C63.6424442,39.3472245 65.1348422,41.0223464 67.0347546,42.1160259 C65.1314969,43.2337646 63.640203,44.9292838 62.7807384,46.9526074 C61.8881292,49.0454668 61.8259856,52.0472894 61.8259856,55.4755395 L61.8259856,68.0831944 C61.8569803,69.3933862 61.697144,70.7011494 61.3514341,71.965926 C61.0849725,72.9034525 60.5606716,73.7486577 59.8373885,74.4066602 C59.0420987,75.0555609 58.0931529,75.4920333 57.0804695,75.6747199 L56.4138376,75.809381 C54.825842,76.0969371 53.2146979,76.2396738 51.6005284,76.2359582 L58.4928257,76.2359582 C60.1069951,76.2396738 61.7181392,76.0969371 63.3061348,75.809381 L63.9727667,75.6747199 C64.9867602,75.4908079 65.9372381,75.0545246 66.7353352,74.4066602 C67.4549356,73.7466359 67.9769382,72.9019843 68.2437314,71.965926 C68.592286,70.7017029 68.7521728,69.3935246 68.7182829,68.0831944 L68.7182829,55.6102007 C68.7182829,52.125842 69.1589378,49.3428437 70.051547,47.2836496 C70.9933939,45.1604878 72.5716339,43.3774872 74.5710862,42.1777454 L74.4637469,42.110415 L74.5654367,42.0374733 Z" fill="#0FCE7C"></path>
						<path d="M80.3617592,35.3552689 C79.1049603,33.6690513 78.4478556,31.6134105 78.4943199,29.5133023 L78.4943199,16.786561 C78.5265219,14.3569008 78.2640019,11.932266 77.7124702,9.56539673 C77.2658178,7.59294824 76.3076887,5.77185983 74.9338107,4.28407942 C73.3968597,2.75025412 71.482276,1.64623598 69.3821164,1.08277136 C67.9759409,0.675777012 66.535764,0.396185708 65.0791314,0.247403766 C63.4800055,0.0763638996 61.8725808,-0.00599159026 60.2642881,0.000338908275 L0,0.000338908275 C0,0.000338908275 2.13180562,21.2493302 14.4557794,27.0071995 C15.5188698,33.2808663 18.3931513,42.3241411 26.0935256,45.92351 C27.218489,52.7073677 30.5090069,61.5600217 39.7168322,64.116583 C39.7078769,64.2266634 39.7078769,64.3372858 39.7168322,64.4473662 C39.7168322,64.4473662 40.8417957,83.559904 60.5286545,83.559904 C62.2160998,83.559904 63.740425,83.4982326 65.096006,83.3917094 C66.4612675,83.3015208 67.8141381,83.0761508 69.1346246,82.7189298 C71.2810933,82.1856022 73.2508719,81.1034342 74.8494386,79.5792935 C76.2630257,78.1252437 77.252764,76.3150188 77.7124702,74.342828 C78.2707707,71.9542962 78.5333433,69.5065773 78.4943199,67.054386 L78.4943199,54.2603666 C78.4559071,52.1890386 79.1132121,50.1643452 80.3617592,48.5081039 C81.6067185,46.8597947 83.560405,46.0375087 86.2228183,46.0412465 L86.2228183,37.8221263 C83.556655,37.8221263 81.6029685,36.9998406 80.3617592,35.3552689 Z M70.0289702,46.9887438 C69.1327495,49.0668844 68.6846391,51.8084599 68.6846391,55.2134706 L68.6846391,67.6711001 C68.6846391,70.7247707 68.0190358,72.7804851 66.6878293,73.8382437 C66.2028896,74.2122766 65.6593573,74.5039945 65.0791314,74.7016437 C63.9992691,75.0669781 62.8759544,75.2894012 61.7379904,75.36321 C60.6130269,75.36321 50.3083625,76.6863423 48.626542,64.8342141 L58.1887307,64.8342141 C57.8062433,57.2093825 51.7145667,56.7664695 50.938342,56.738437 L47.4284562,56.738437 C39.8068293,56.738437 36.3869404,51.0534519 34.8457406,45.9179037 L57.5306274,45.9179037 C57.5306274,41.4327085 53.9419939,37.6315055 50.5052311,37.8221263 L35.6219653,37.8221263 C28.1184597,37.7436353 24.7323199,32.1035025 23.2023697,27.0071995 L56.4506623,27.0071995 C56.4506623,22.5220043 53.3626379,18.9114222 48.8740341,18.9114222 L23.6017317,18.9114222 C15.9801048,18.9114222 13.6514306,13.2264373 12.1158556,8.09067369 L58.3743498,8.09067369 C59.998376,8.08434797 61.6195522,8.22698215 63.2173172,8.51698234 C63.4479347,8.55622783 63.6729272,8.60107976 63.8866704,8.65153823 C64.2850054,8.73740008 64.6761417,8.85360891 65.0566323,8.99914084 C65.6433186,9.20035495 66.1884147,9.50621021 66.6653299,9.90178636 C67.389024,10.5515209 67.9152151,11.3906843 68.1840304,12.3237917 C68.53542,13.5766887 68.6965769,14.8749748 68.66214,16.1754531 L68.66214,28.5601983 C68.66214,32.0250115 69.1102504,34.7796691 70.0064712,36.8241705 C70.9699057,38.933921 72.5629333,40.6960107 74.5681975,41.8700148 C72.5577847,43.0641068 70.9710415,44.8534218 70.0289702,46.9887438 L70.0289702,46.9887438 Z" fill="#15003E"></path>
				</g>
				<path d="M137.057776,19.6418303 C141.318343,19.6656403 145.493434,20.8421336 149.142172,23.0470762 L149.142172,31.3554272 C145.093517,27.9632713 140.904931,26.2671933 136.576415,26.2671933 C132.00585,26.1813645 127.616575,28.0574323 124.514408,31.4227467 C121.462946,34.5584748 119.71202,38.7242796 119.591189,43.0816235 L119.588855,43.9553977 C119.486643,48.5697519 121.265307,53.026533 124.514408,56.2973102 C127.662402,59.6011157 132.047196,61.4322723 136.604401,61.3462745 C138.760342,61.4064576 140.903458,60.9948546 142.884481,60.140133 C143.929857,59.6900717 144.932167,59.1455265 145.878993,58.5132445 C147.01293,57.7516657 148.102439,56.9256505 149.142172,56.0392519 L149.142172,64.5102919 C145.304223,66.7309594 140.952011,67.9032185 136.520443,67.909928 C130.146824,68.0183072 124.007312,65.5041973 119.532882,60.9535771 C114.963804,56.5201705 112.427463,50.3902652 112.525164,44.0171073 C112.486341,38.1941187 114.572541,32.5577332 118.39105,28.1689698 C123.200927,22.4879501 129.423169,19.6455703 137.057776,19.6418303 Z M186.213868,19.6446416 C199.536368,19.7212896 210.317481,30.5149117 210.39404,43.8528686 C210.492132,49.9684988 208.142484,55.8549023 203.893329,60.2126925 L203.206704,60.8878721 C198.603743,65.4903385 192.331469,68.0244413 185.827031,67.909549 C179.824503,67.909549 174.433066,65.8309231 169.652722,61.6736715 C164.412657,57.0711332 161.792624,51.0410601 161.792624,43.5834521 C161.792624,37.0313836 164.192141,31.4035648 168.991173,26.6999955 C173.52995,22.0939128 179.751867,19.5450769 186.213868,19.6446416 Z M235.149278,20.6405502 C239.822111,20.6405502 243.514433,21.1032662 246.226244,22.0286982 C249.174364,22.9562795 251.87773,24.5348592 254.137563,26.6483649 C258.93366,31.0394835 261.331708,36.8056369 261.331708,43.9468246 C261.331708,51.0880124 258.834675,56.882266 253.840608,61.3295847 C251.564115,63.4088097 248.875959,64.9829676 245.951702,65.9492516 C243.385565,66.8147364 239.745538,67.2474789 235.031617,67.2474789 L225.377791,67.2474789 L225.377791,20.6405502 L235.149278,20.6405502 Z M302.279224,20.6405502 L302.279224,27.2497083 L283.653258,27.2497083 L283.653258,38.450433 L301.73585,38.450433 L301.73585,45.059591 L283.653258,45.059591 L283.653258,60.6383209 L302.279224,60.6383209 L302.279224,67.2474789 L276.645413,67.2474789 L276.645413,20.6405502 L302.279224,20.6405502 Z M173.857481,31.3305978 C170.563712,34.5834331 168.758151,39.0538258 168.867833,43.6844833 C168.867833,48.8183712 170.594588,53.0485899 174.048097,56.3639141 C177.501607,59.6792383 181.467162,61.3387713 185.944764,61.342513 C190.577449,61.4414539 195.043616,59.6122661 198.278726,56.2909471 C204.958876,49.3243698 204.986039,38.3301756 198.340396,31.3305978 C191.571884,24.5807204 180.625993,24.5807204 173.857481,31.3305978 Z M235.535879,27.2103681 L232.375834,27.2103681 L232.38704,60.6383209 L235.547085,60.6383209 C238.196737,60.703564 240.841078,60.3682227 243.391168,59.6435751 C245.491029,58.9271605 247.418517,57.7786202 249.050114,56.2715558 C252.501511,53.1130975 254.227209,48.9917405 254.227209,43.9074843 C254.227209,38.8232284 252.522055,34.6775179 249.111747,31.4703527 C246.041348,28.6341097 241.516059,27.2141148 235.535879,27.2103681 Z" fill="#15003E"></path>
				<path d="M413.137132,14.6482308 L447.129927,50.2310621 L447.129927,19.5017132 L456.414994,19.5017132 L456.414994,72.9068918 L422.422202,37.4084202 L422.422202,68.3908472 L413.137132,68.3908472 L413.137132,14.6482308 Z M368.794825,19.6418303 L368.794825,48.7925878 C368.794825,52.5317329 369.382395,55.2618137 370.54635,56.9099525 C372.225126,59.2812546 374.625776,60.441679 377.82105,60.441679 C381.016324,60.441679 383.416974,59.2812546 385.151711,56.8931349 C386.241624,55.4338721 386.802276,53.0001751 386.882081,49.649364 L386.892043,48.7925878 L386.892043,19.6698599 L396.158896,19.6698599 L396.158896,50.6929931 C396.158896,55.8784643 394.513692,60.2230484 391.279248,63.5865971 C387.744268,67.2053105 382.90319,69.2449187 377.84903,69.2449187 C372.79487,69.2449187 367.95379,67.2053105 364.418809,63.5865971 C361.381273,60.4332702 359.750367,56.4078509 359.55837,51.6535329 L359.539165,50.6929931 L359.539165,19.6418303 L368.794825,19.6418303 Z M345.889993,19.6418303 L345.889993,28.5139281 L329.579621,28.5139281 L329.579621,37.4817272 L345.30869,37.4817272 L345.30869,46.3538252 L329.579621,46.3538252 L329.579621,68.5791055 L320.256182,68.5791055 L320.256182,19.6418303 L345.889993,19.6418303 Z M473.393233,19.6418303 L484.302674,19.6418303 C489.09383,19.6418303 492.968369,20.1315971 495.780081,21.0942423 C498.88511,22.075212 501.733603,23.7346239 504.119617,25.9525039 C509.152581,30.5518084 511.677496,36.637302 511.677496,44.1132828 C511.677496,51.5892636 509.045733,57.7366814 503.804705,62.369763 C501.400394,64.5540172 498.565117,66.209077 495.482038,67.2280247 C493.043816,68.0485248 489.641645,68.5000579 485.370817,68.5696155 L484.184581,68.5791055 L473.393233,68.5791055 L473.393233,19.6418303 L484.302674,19.6418303 L473.393233,19.6418303 Z M484.724431,28.5139281 L482.677503,28.5139281 L482.677503,59.7070079 L484.724431,59.7070079 C487.272967,59.7693735 489.816532,59.4506099 492.271064,58.7612513 C494.220311,58.0969232 496.010676,57.0349612 497.528966,55.6425061 C500.779304,52.6757579 502.359486,48.9039904 502.359486,44.1132828 C502.359486,39.2719095 500.796174,35.4663651 497.579576,32.4545806 C494.911965,30.0110242 490.939544,28.6856719 485.773518,28.529548 L484.724431,28.5139281 Z" fill="#0FCE7C"></path>
		</g>
</svg>

<svg xmlns="http://www.w3.org/2000/svg" viewBox="0 0 511.677 83.56">
  <path fill="#0fce7c" d="M74.565 42.037a11.246 11.246 0 0 1-4.52-5.1c-.892-2.065-1.336-4.842-1.332-8.332V16.132a13.273 13.273 0 0 0-.475-3.877 5.263 5.263 0 0 0-1.508-2.446 6.053 6.053 0 0 0-2.763-1.263 10.74 10.74 0 0 0-.667-.135 26.208 26.208 0 0 0-4.807-.42H51.6a26.208 26.208 0 0 1 4.813.426c.231.04.452.084.666.135a6.001 6.001 0 0 1 2.757 1.262 5.23 5.23 0 0 1 1.514 2.447c.346 1.262.506 2.568.475 3.877V28.75c0 3.434.062 6.497.955 8.59a10.122 10.122 0 0 0 4.254 4.775 10.267 10.267 0 0 0-4.254 4.837c-.893 2.092-.955 5.094-.955 8.523v12.607a13.513 13.513 0 0 1-.475 3.883 5.235 5.235 0 0 1-1.514 2.44 6.064 6.064 0 0 1-2.757 1.269l-.666.134c-1.588.288-3.2.43-4.813.427h6.892a26.67 26.67 0 0 0 4.813-.427l.667-.134a6.115 6.115 0 0 0 2.762-1.268 5.274 5.274 0 0 0 1.509-2.441c.348-1.264.508-2.572.474-3.883V55.61c0-3.484.44-6.267 1.334-8.326a11.302 11.302 0 0 1 4.52-5.106l-.108-.068z"/>
  <path fill="#15003e" d="M80.362 35.355a9.426 9.426 0 0 1-1.868-5.842V16.787c.033-2.43-.23-4.855-.782-7.222a11.542 11.542 0 0 0-2.778-5.28 12.412 12.412 0 0 0-5.552-3.202A24.392 24.392 0 0 0 65.08.247 43.657 43.657 0 0 0 60.264 0H0s2.132 21.25 14.456 27.007c1.063 6.274 3.937 15.317 11.638 18.917 1.124 6.783 4.415 15.636 13.623 18.193a2.03 2.03 0 0 0 0 .33S40.842 83.56 60.529 83.56a58.53 58.53 0 0 0 4.567-.168 20.688 20.688 0 0 0 4.039-.673 12.73 12.73 0 0 0 5.714-3.14 11.14 11.14 0 0 0 2.863-5.236c.559-2.389.821-4.836.782-7.289V54.26a9.27 9.27 0 0 1 1.868-5.752c1.245-1.648 3.198-2.47 5.86-2.467v-8.219c-2.665 0-4.619-.822-5.86-2.467zM70.029 46.99c-.896 2.078-1.344 4.82-1.344 8.224v12.458c0 3.054-.666 5.11-1.997 6.167a5.58 5.58 0 0 1-1.609.864c-1.08.365-2.203.587-3.341.661-1.125 0-11.43 1.323-13.111-10.529h9.562c-.383-7.625-6.474-8.068-7.25-8.096h-3.51c-7.622 0-11.042-5.685-12.583-10.82H57.53c0-4.485-3.589-8.286-7.026-8.096H35.622c-7.504-.078-10.89-5.718-12.42-10.815h33.249c0-4.485-3.088-8.096-7.577-8.096H23.602c-7.622 0-9.95-5.685-11.486-10.82h46.258a26.54 26.54 0 0 1 4.843.426c.23.04.456.084.67.135.398.085.79.202 1.17.347a5.123 5.123 0 0 1 1.608.903 5.184 5.184 0 0 1 1.519 2.422 12.99 12.99 0 0 1 .478 3.851V28.56c0 3.465.448 6.22 1.344 8.264a11.276 11.276 0 0 0 4.562 5.046 11.225 11.225 0 0 0-4.539 5.119zM137.058 19.642a23.62 23.62 0 0 1 12.084 3.405v8.308c-4.048-3.392-8.237-5.088-12.566-5.088a15.996 15.996 0 0 0-12.062 5.156 17.41 17.41 0 0 0-4.923 11.659l-.002.873a16.98 16.98 0 0 0 4.926 12.342 16.275 16.275 0 0 0 12.09 5.05c2.156.06 4.299-.352 6.28-1.207a18.725 18.725 0 0 0 2.994-1.627 35.773 35.773 0 0 0 3.264-2.474v8.471a25.278 25.278 0 0 1-12.622 3.4 23.269 23.269 0 0 1-16.988-6.956 23.106 23.106 0 0 1-7.008-16.937 23.902 23.902 0 0 1 5.866-15.848c4.81-5.681 11.033-8.523 18.667-8.527zm49.156.003c13.322.076 24.103 10.87 24.18 24.208a22.91 22.91 0 0 1-6.5 16.36l-.687.675a23.98 23.98 0 0 1-17.38 7.022c-6.002 0-11.394-2.08-16.174-6.236-5.24-4.603-7.86-10.633-7.86-18.09 0-6.553 2.4-12.18 7.198-16.884a23.667 23.667 0 0 1 17.223-7.055zm48.935.996c4.673 0 8.365.462 11.077 1.388a20.66 20.66 0 0 1 7.912 4.62c4.796 4.39 7.194 10.157 7.194 17.298 0 7.141-2.497 12.935-7.491 17.383a21.876 21.876 0 0 1-7.89 4.62c-2.565.865-6.205 1.297-10.92 1.297h-9.653V20.641zm67.13 0v6.609h-18.626v11.2h18.083v6.61h-18.083v15.578h18.626v6.61h-25.634V20.64zM173.857 31.33a16.804 16.804 0 0 0-4.99 12.353c0 5.134 1.728 9.365 5.181 12.68 3.454 3.315 7.42 4.975 11.897 4.979a16.72 16.72 0 0 0 12.334-5.052c6.68-6.967 6.707-17.96.061-24.96-6.768-6.75-17.714-6.75-24.482 0zm61.679-4.12h-3.16l.011 33.427h3.16c2.65.066 5.294-.27 7.844-.994a15.913 15.913 0 0 0 5.66-3.372c3.45-3.159 5.176-7.28 5.176-12.365 0-5.084-1.705-9.23-5.115-12.437-3.07-2.836-7.596-4.256-13.576-4.26z"/>
  <path fill="#0fce7c" d="m413.137 14.648 33.993 35.583v-30.73h9.285v53.406l-33.993-35.499v30.983h-9.285zm-44.342 4.994v29.15c0 3.74.587 6.47 1.751 8.118 1.68 2.371 4.08 3.532 7.275 3.532 3.195 0 5.596-1.16 7.33-3.549 1.09-1.46 1.651-3.893 1.731-7.244l.01-.856V19.67h9.267v31.023c0 5.185-1.645 9.53-4.88 12.894a18.775 18.775 0 0 1-13.43 5.658c-5.054 0-9.895-2.04-13.43-5.658-3.038-3.154-4.669-7.18-4.86-11.933l-.02-.961V19.642zm-22.905 0v8.872h-16.31v8.968h15.729v8.872h-15.73v22.225h-9.323V19.642zm127.503 0h10.91c4.79 0 8.665.49 11.477 1.452a21.971 21.971 0 0 1 8.34 4.859c5.033 4.599 7.558 10.684 7.558 18.16 0 7.476-2.632 13.624-7.873 18.257a23.208 23.208 0 0 1-8.323 4.858c-2.438.82-5.84 1.272-10.111 1.342l-1.186.01h-10.792V19.641h10.91zm11.331 8.872h-2.046v31.193h2.046a25.594 25.594 0 0 0 7.547-.946 14.882 14.882 0 0 0 5.258-3.118c3.25-2.967 4.83-6.739 4.83-11.53 0-4.841-1.563-8.647-4.78-11.658-2.667-2.444-6.64-3.77-11.805-3.925z"/>
</svg>
